packages/tokens/icons/abTesting/size24Px.svg

<svg viewBox="0 0 24 24" fill="none" xmlns="http://www.w3.org/2000/svg" width="1em" height="1em"><path d="M4.50001 4.49978L19.5 4.49987C20.6046 4.49987 21.5 5.3953 21.5 6.49986V14.5C21.5 15.6046 20.6046 16.5 19.5 16.5L4.49999 16.4999C3.39542 16.4999 2.5 15.6045 2.5 14.4999L2.5 6.49978C2.5 5.3952 3.39544 4.49977 4.50001 4.49978Z" stroke="currentColor" stroke-linecap="round"/><path d="M12 16.5L12 20.0183" stroke="currentColor"/><path d="M7.5 20.5H16.5" stroke="currentColor" stroke-linecap="round"/><path d="M7.08685 8.163H7.96885L9.86585 13H8.87185L8.45185 11.887H6.55485L6.13485 13H5.18985L7.08685 8.163ZM8.22785 11.159L7.50685 9.206L6.77885 11.159H8.22785ZM13.3871 7.456L13.9401 7.701L11.0351 13.672L10.4891 13.42L13.3871 7.456ZM15.0409 13L15.0409 8.17H16.5879C16.7932 8.17 16.9962 8.18633 17.1969 8.219C17.4022 8.25167 17.5842 8.31233 17.7429 8.401C17.9062 8.48967 18.0369 8.61333 18.1349 8.772C18.2329 8.93067 18.2819 9.136 18.2819 9.388C18.2819 9.53267 18.2562 9.66333 18.2049 9.78C18.1582 9.89667 18.0975 9.99933 18.0229 10.088C17.9529 10.1767 17.8735 10.2513 17.7849 10.312C17.6962 10.368 17.6122 10.4123 17.5329 10.445V10.459C17.8455 10.529 18.0952 10.6643 18.2819 10.865C18.4732 11.061 18.5689 11.313 18.5689 11.621C18.5689 11.887 18.5129 12.1133 18.4009 12.3C18.2935 12.482 18.1582 12.6267 17.9949 12.734C17.8455 12.8273 17.6682 12.895 17.4629 12.937C17.2575 12.979 17.0382 13 16.8049 13L15.0409 13ZM16.7349 12.286C16.8609 12.286 16.9775 12.2767 17.0849 12.258C17.1969 12.2393 17.2925 12.2043 17.3719 12.153C17.4559 12.1017 17.5212 12.0293 17.5679 11.936C17.6192 11.8427 17.6449 11.7237 17.6449 11.579C17.6449 11.4437 17.6169 11.3317 17.5609 11.243C17.5095 11.1497 17.4372 11.0703 17.3439 11.005C17.2505 10.9397 17.1525 10.8977 17.0499 10.879C16.9519 10.8603 16.8329 10.851 16.6929 10.851H15.9509V12.286H16.7349ZM15.9509 8.884V10.186H16.5179C16.6392 10.186 16.7489 10.1767 16.8469 10.158C16.9495 10.1393 17.0382 10.1043 17.1129 10.053C17.1922 10.0017 17.2529 9.93167 17.2949 9.843C17.3369 9.75433 17.3579 9.64233 17.3579 9.507C17.3579 9.297 17.2832 9.14067 17.1339 9.038C16.9892 8.93533 16.7979 8.884 16.5599 8.884H15.9509Z" fill="currentColor"/></svg>

<svg xmlns="http://www.w3.org/2000/svg" fill="none" viewBox="0 0 24 24" width="1em" height="1em"><path stroke="currentColor" stroke-linecap="round" d="M4.5 4.5h15a2 2 0 0 1 2 2v8a2 2 0 0 1-2 2h-15a2 2 0 0 1-2-2v-8a2 2 0 0 1 2-2Z"/><path stroke="currentColor" d="M12 16.5v3.518"/><path stroke="currentColor" stroke-linecap="round" d="M7.5 20.5h9"/><path fill="currentColor" d="M7.087 8.163h.882L9.866 13h-.994l-.42-1.113H6.555L6.135 13H5.19l1.897-4.837Zm1.14 2.996-.72-1.953-.728 1.953h1.449Zm5.16-3.703.553.245-2.905 5.971-.546-.252 2.898-5.964ZM15.041 13V8.17h1.547c.205 0 .408.016.609.049.205.033.387.093.546.182.163.089.294.212.392.371.098.159.147.364.147.616a.964.964 0 0 1-.077.392c-.047.117-.107.22-.182.308a1.08 1.08 0 0 1-.238.224c-.089.056-.173.1-.252.133v.014c.313.07.562.205.749.406.191.196.287.448.287.756 0 .266-.056.492-.168.679a1.298 1.298 0 0 1-.406.434c-.15.093-.327.161-.532.203a3.281 3.281 0 0 1-.658.063H15.04Zm1.694-.714c.126 0 .242-.01.35-.028a.75.75 0 0 0 .287-.105.52.52 0 0 0 .196-.217.736.736 0 0 0 .077-.357.619.619 0 0 0-.084-.336.703.703 0 0 0-.217-.238.742.742 0 0 0-.294-.126 1.94 1.94 0 0 0-.357-.028h-.742v1.435h.784Zm-.784-3.402v1.302h.567c.121 0 .23-.01.329-.028a.679.679 0 0 0 .266-.105.499.499 0 0 0 .182-.21.785.785 0 0 0 .063-.336c0-.21-.075-.366-.224-.469-.145-.103-.336-.154-.574-.154h-.61Z"/></svg>
